X: 85
T: No_178_He_Is_Going_Away.krn
%%abc-version 2.0
%%abcx-abcm2ps-target-version 5.9.1 (29 Sep 2008)
%%abc-creator hum2abc beta
%%abcx-conversion-date 2020/08/10 18:54:57
%%humdrum-veritas 1422894231
%%humdrum-veritas-data 1975287304
%%linebreak <none>
%%barnumbers 0
L: 1/16
M: 2/4
K: F clef=treble
[K:clef=treble][M:2/4]c2>d2 c3G | 
F4G4 ||  
[M:3/4]c>dcG2< G2F G2F2 ||  
[M:2/4]D4C3F | 
F4D3G ||  
[M:3/4]G4F4(3:2:1F2D2(3:2:1F | 
D4C8 |]  


